src/assets/svg/dots-path.svg

<svg width="1146" height="529" viewBox="0 0 1146 529" fill="none" xmlns="http://www.w3.org/2000/svg">
<path d="M393.5 11.7529H1095C1095 11.7529 1134 11.7529 1134 46.807L1134 143.88C1134 143.88 1134 178.934 1095 178.934L50.9997 178.934C50.9997 178.934 12 178.934 12 213.988L12.0001 311.96C12.0001 311.96 12.0001 347.014 51 347.014C51 347.014 757.667 347.014 1095 347.014C1095 347.014 1134 347.014 1134 382.068V481.838C1134 481.838 1134 516.892 1095 516.892C1095 516.892 731.667 516.892 570.5 516.892" stroke="#E27A46" stroke-width="23" stroke-linecap="round" stroke-linejoin="round" stroke-dasharray="1 45"/>
</svg>

<svg xmlns="http://www.w3.org/2000/svg" width="1146" height="529" fill="none"><path stroke="#E27A46" stroke-dasharray="1 45" stroke-linecap="round" stroke-linejoin="round" stroke-width="23" d="M393.5 11.753H1095s39 0 39 35.054v97.073s0 35.054-39 35.054H51s-39 0-39 35.054v97.972s0 35.054 39 35.054h1044s39 0 39 35.054v99.77s0 35.054-39 35.054H570.5"/></svg>
